public/img/bar.svg

<!DOCTYPE svg  PUBLIC '-//W3C//DTD SVG 1.1//EN'  'http://www.w3.org/Graphics/SVG/1.1/DTD/svg11.dtd'>
<svg id="Layer_1" width="512px" height="512px" enable-background="new 0 0 512 512" version="1.1" viewBox="0 0 512 512" xml:space="preserve" xmlns="http://www.w3.org/2000/svg">
<path d="m512 480v32h-512v-512h32v96h32v32h-32v64h32v32h-32v64h32v32h-32v64h32v32h-32v64h480zm-352-192h-64v160h64v-160zm96-96h-64v256h64v-256zm96-96h-64v352h64v-352zm96-96h-64v448h64v-448z" fill="#fff" stroke="#fff"/>
</svg>

<?xml version="1.0" encoding="utf-8"?>
<!-- Generator: Adobe Illustrator 16.0.0, SVG Export Plug-In . SVG Version: 6.00 Build 0)  -->
<!DOCTYPE svg PUBLIC "-//W3C//DTD SVG 1.1//EN" "http://www.w3.org/Graphics/SVG/1.1/DTD/svg11.dtd">
<svg version="1.1" id="Layer_1" xmlns="http://www.w3.org/2000/svg" xmlns:xlink="http://www.w3.org/1999/xlink" x="0px" y="0px"
         width="512px" height="512px" viewBox="0 0 512 512" enable-background="new 0 0 512 512" xml:space="preserve">
<path d="M512,480v32H32H0v-32V0h32v96h32v32H32v64h32v32H32v64h32v32H32v64h32v32H32v64H512z M160,288H96v160h64V288z M256,192h-64
        v256h64V192z M352,96h-64v352h64V96z M448,0h-64v448h64V0z" fill="white" stroke="white"/>
</svg>
